X: 2
T: Orijent
N: Serbian line dance
Z: John Chambers <jc@trillian.mit.edu>
M: 2/4
L: 1/16
K: AMix
|: "A"[c2A2][ec][dB] [cA][cA][cA][AE] \
| [cA][AE][ge][fd] [ec][ec][ec][cA] \
| "D"[a2f2][g2e2] [fd][dB][ge][fd] \
|1,3 "E7"[ec][cA][dB][BG] "A"[cA][cA][cA][AE] \
:|2,4 "E7"[ec][cA][dB][BG] "A"[c4A4] :|
|: "D"[a2f2][g2e2] [fd][dB][ge][fd] \
| "A"[ec][cA][ge][fd] [ec][ec][ec][cA] \
| "(E)"[f2d2][e2c2] [ec][cA][ec][fd] \
|1,3 "E7"[dB][BG][ec][dB] "A"[cA][cA][cA][AE] \
:|2,4 "E7"[dB][BG][ec][dB] "A  fine"[c4A4] :|
|: "D"FDFG A=c_BA \
| "Gm"AGFG A_B^cd \
| "(A)"egfe edcd \
| fedc "Gm"_BAG2 |
|  "D"FDFG A=c_BA \
| "Gm"AGFG A_B^cd \
| "(A)"egfe dc_BA \
| "Gm"G4 z4 :|
